img/skills-icon/sass.svg

<svg viewBox="0 0 512 384" xmlns="http://www.w3.org/2000/svg"><path fill="#cf649a" d="M166.54 11.35C188.86 3.86 212.44-.18 236.01.3c21.27.66 43.22 4.66 61.36 16.36 11.18 7.16 20.2 18.19 23.28 31.28 4.92 20.31-.84 41.77-11.1 59.5-14.84 25.41-38.52 45.55-65.92 56.26-15.59 5.97-31.9 10.18-48.51 12-13.84 1.45-27.96 1.61-41.62-1.39-9.42-2.25-18.35-6.77-25.6-13.21-4.71-4.24-9.1-9.63-9.91-16.11-.52-1.95 1.06-3.72 3.04-3.57 3.35 2.1 5.44 5.68 8.78 7.83 11.02 7.78 24.89 10.35 38.16 10.16 18.36-.76 36.53-4.96 53.56-11.78 23.39-9.51 45.03-24.58 59.91-45.2 7.36-10.37 13.1-22.47 13.5-35.36.05-7.43-1.8-15.4-7.22-20.8-7.09-7.23-17.02-10.71-26.7-12.85-14.1-2.9-28.69-2.69-42.94-1.06-28.74 3.59-56.36 13.55-82.02 26.73-24.8 12.74-49.07 27.28-69.33 46.62-13.36 13.07-25.38 29.21-27.72 48.26-1.81 11.6 1.2 23.65 7.66 33.38 8.89 13.5 21.73 23.67 34.33 33.53 13.03 10.26 26.76 19.88 37.96 32.22 16.88-9.27 33.84-18.41 50.64-27.79 10-12.8 22.54-24.68 38.32-29.77 6.95-2.13 16.1-1.59 20.42 5.09 5.06 7.88 4.03 17.88 2.72 26.71 4.22-4.77 11.95-3.88 15.99.61 1.99 2.28 1.15 5.51.54 8.16-4.2 15.5-8.6 30.96-11.79 46.71-1.14 5.7-1.53 11.61-.52 17.37 3.49-3.89 5.41-8.81 7.82-13.37 4.81-9.36 8.92-19.05 13.26-28.63 8.96-20.07 18.04-40.08 26.6-60.31 2.6-5.91 3.38-12.38 5.62-18.39 2.91-2.92 7.49-3.17 11.38-3.84 5.37-.43 11.08-1.12 16.22.93 1.98.79 4.36 2.84 3.37 5.21-2.37 7.3-5.18 14.57-5.92 22.28-.7 5.99.1 12.01 1 17.94 1.01 6.5 4.15 12.39 7.19 18.15 10.01-16.71 19.87-33.58 28.04-51.28 3.99-7.86 4.17-17.03 8.07-24.9 5.14-3.7 11.99-3.58 18.07-4 4.56.1 11.03.12 13 5.19-1.66 6.29-4.35 12.29-5.51 18.72-1.86 8.58-.9 17.48.85 26 2.13 7.62 6.37 14.41 9.84 21.46 23.82-11.43 52.24-14.42 77.39-5.7 16.39 5.8 31.14 18.02 37.31 34.59 4.07 10.98 4.41 24.24-2.42 34.22-4.62 6.69-11.43 12.27-19.39 14.33-2.15.92-3.96-.56-4.39-2.64 6.45-4.54 13.48-9.25 16.51-16.9 4.27-9.25.98-20.03-4.53-28-8.18-11.74-21.92-18.23-35.6-21.11-19.58-4-40.57-3.61-59.25 4.05 4.01 10.54 6.61 23.05.74 33.44-7.11 12.52-19.74 21.18-33.12 25.91-5.17 1.99-11.15 4.17-16.53 1.66-4.41-1.81-6.86-6.55-6.91-11.15-.14-7.98 2.67-15.75 6.5-22.64 5.99-10.39 14.21-19.38 23.44-26.98-3.4-6.96-7.09-13.84-9.31-21.29-1.92-6.58-3.51-13.25-4.74-19.98-8.9 18.27-19.23 35.83-30.69 52.62 5.17 11.68 8.34 25.37 3.49 37.71-4.49 11.77-15.45 19.56-26.76 24.11-8.15 3.6-17.04 5.59-25.96 5.4-3.61-.09-7.6-.96-9.88-4.01-2.22-2.83-1.36-6.76.07-9.75 1.96-3.59 4.7-6.68 7.24-9.87 9.79-11.98 20.3-23.42 29.01-36.25-3.62-7.91-8.01-15.5-10.6-23.84-2.12-6.79-3.66-13.73-5.04-20.69-11.88 30.37-25.82 59.92-41.82 88.34-3.99 7.58-8.68 15.17-15.7 20.31-3.5 2.69-8.43 3.92-12.56 1.96-4.39-1.92-6.69-6.56-7.89-10.94-2.44-9.71-1.61-19.85-.26-29.65-4.54 11.47-9.57 22.76-15.37 33.65-2.09 3.76-4.33 7.54-7.54 10.46-7.18 6.71-20.37 6.04-26.1-2.25-8.76-11.86-12.45-26.87-13.02-41.42.42-13.3 2.44-26.64 6.83-39.23-9.77 5.3-19.39 10.87-28.91 16.61 6.77 13.76 7.66 29.72 5.67 44.71-2.43 18.31-10.85 35.86-24.21 48.7-14.14 14.17-33.46 23.28-53.54 24.16h-4.92c-8.28-.88-17.83-1-24.11-7.3-9.21-9.2-12.35-23.18-10.18-35.77 1.84-12.72 8.38-24.37 17.43-33.37 18.83-18.86 42.37-32 65.83-44.17-8.85-7.59-18.63-13.97-28.18-20.63C56 231.58 39.8 220.14 25.85 206.15 13.51 193.59 2.7 178.33 0 160.55v-7.05c1.05-10.75 4.89-21.04 9.93-30.53 8.47-15.79 20.32-29.5 33.33-41.71 17.99-16.67 38.51-30.41 60.01-42.12 20.28-10.98 41.49-20.21 63.27-27.79m45.87 203.26c-6.68 2.13-12.03 7.23-16.1 12.78-10.3 14.58-17.68 31.56-19.14 49.49-.7 8.35-.8 17.05 2.05 25.04.82 1.89 2.24 4.82 4.79 3.93 2.7-1.47 4.22-4.32 5.76-6.86 5.39-9.88 9.15-20.54 13.25-30.99 5.07-12.7 9.68-25.59 13.24-38.8 1.05-4.31 2.46-8.73 1.85-13.21-1.09-2.08-3.75-2.01-5.7-1.38m151.03 64.76c-1.22 3.4-3.15 7.16-1.67 10.79 4.4-1.76 8.79-3.83 12.29-7.1 7.98-7.09 10.52-19.13 7.22-29.11-8.05 6.7-14.18 15.62-17.84 25.42M65.26 307.34c-8.53 8.12-15.08 18.79-16.86 30.54-.52 5.11-.42 11.37 4 14.86 5.08 3.48 11.77 2.44 17.39 1.04 16.73-4.76 30.29-17.62 38.37-32.74 7.73-14.42 8.88-31.79 4.44-47.42-16.68 9.86-33.26 20.3-47.34 33.72m238.1-17.88c-4.92 6-10.56 11.37-15.36 17.47 4.33.47 7.69-2.81 11.01-5.06 7.98-5.91 15.04-14.82 14.58-25.26-3.49 4.22-6.71 8.65-10.23 12.85z"/></svg>

<?xml version="1.0" encoding="UTF-8" ?>
<!DOCTYPE svg PUBLIC "-//W3C//DTD SVG 1.1//EN" "http://www.w3.org/Graphics/SVG/1.1/DTD/svg11.dtd">
<svg viewBox="0 0 512 384" version="1.1" xmlns="http://www.w3.org/2000/svg">
<g id="#cf649aff">
<path fill="#cf649a" opacity="1.00" d=" M 166.54 11.35 C 188.86 3.86 212.44 -0.18 236.01 0.30 C 257.28 0.96 279.23 4.96 297.37 16.66 C 308.55 23.82 317.57 34.85 320.65 47.94 C 325.57 68.25 319.81 89.71 309.55 107.44 C 294.71 132.85 271.03 152.99 243.63 163.70 C 228.04 169.67 211.73 173.88 195.12 175.70 C 181.28 177.15 167.16 177.31 153.50 174.31 C 144.08 172.06 135.15 167.54 127.90 161.10 C 123.19 156.86 118.80 151.47 117.99 144.99 C 117.47 143.04 119.05 141.27 121.03 141.42 C 124.38 143.52 126.47 147.10 129.81 149.25 C 140.83 157.03 154.70 159.60 167.97 159.41 C 186.33 158.65 204.50 154.45 221.53 147.63 C 244.92 138.12 266.56 123.05 281.44 102.43 C 288.80 92.06 294.54 79.96 294.94 67.07 C 294.99 59.64 293.14 51.67 287.72 46.27 C 280.63 39.04 270.70 35.56 261.02 33.42 C 246.92 30.52 232.33 30.73 218.08 32.36 C 189.34 35.95 161.72 45.91 136.06 59.09 C 111.26 71.83 86.99 86.37 66.73 105.71 C 53.37 118.78 41.35 134.92 39.01 153.97 C 37.20 165.57 40.21 177.62 46.67 187.35 C 55.56 200.85 68.40 211.02 81.00 220.88 C 94.03 231.14 107.76 240.76 118.96 253.10 C 135.84 243.83 152.80 234.69 169.60 225.31 C 179.60 212.51 192.14 200.63 207.92 195.54 C 214.87 193.41 224.02 193.95 228.34 200.63 C 233.40 208.51 232.37 218.51 231.06 227.34 C 235.28 222.57 243.01 223.46 247.05 227.95 C 249.04 230.23 248.20 233.46 247.59 236.11 C 243.39 251.61 238.99 267.07 235.80 282.82 C 234.66 288.52 234.27 294.43 235.28 300.19 C 238.77 296.30 240.69 291.38 243.10 286.82 C 247.91 277.46 252.02 267.77 256.36 258.19 C 265.32 238.12 274.40 218.11 282.96 197.88 C 285.56 191.97 286.34 185.50 288.58 179.49 C 291.49 176.57 296.07 176.32 299.96 175.65 C 305.33 175.22 311.04 174.53 316.18 176.58 C 318.16 177.37 320.54 179.42 319.55 181.79 C 317.18 189.09 314.37 196.36 313.63 204.07 C 312.93 210.06 313.73 216.08 314.63 222.01 C 315.64 228.51 318.78 234.40 321.82 240.16 C 331.83 223.45 341.69 206.58 349.86 188.88 C 353.85 181.02 354.03 171.85 357.93 163.98 C 363.07 160.28 369.92 160.40 376.00 159.98 C 380.56 160.08 387.03 160.10 389.00 165.17 C 387.34 171.46 384.65 177.46 383.49 183.89 C 381.63 192.47 382.59 201.37 384.34 209.89 C 386.47 217.51 390.71 224.30 394.18 231.35 C 418.00 219.92 446.42 216.93 471.57 225.65 C 487.96 231.45 502.71 243.67 508.88 260.24 C 512.95 271.22 513.29 284.48 506.46 294.46 C 501.84 301.15 495.03 306.73 487.07 308.79 C 484.92 309.71 483.11 308.23 482.68 306.15 C 489.13 301.61 496.16 296.90 499.19 289.25 C 503.46 280.00 500.17 269.22 494.66 261.25 C 486.48 249.51 472.74 243.02 459.06 240.14 C 439.48 236.14 418.49 236.53 399.81 244.19 C 403.82 254.73 406.42 267.24 400.55 277.63 C 393.44 290.15 380.81 298.81 367.43 303.54 C 362.26 305.53 356.28 307.71 350.90 305.20 C 346.49 303.39 344.04 298.65 343.99 294.05 C 343.85 286.07 346.66 278.30 350.49 271.41 C 356.48 261.02 364.70 252.03 373.93 244.43 C 370.53 237.47 366.84 230.59 364.62 223.14 C 362.70 216.56 361.11 209.89 359.88 203.16 C 350.98 221.43 340.65 238.99 329.19 255.78 C 334.36 267.46 337.53 281.15 332.68 293.49 C 328.19 305.26 317.23 313.05 305.92 317.60 C 297.77 321.20 288.88 323.19 279.96 323.00 C 276.35 322.91 272.36 322.04 270.08 318.99 C 267.86 316.16 268.72 312.23 270.15 309.24 C 272.11 305.65 274.85 302.56 277.39 299.37 C 287.18 287.39 297.69 275.95 306.40 263.12 C 302.78 255.21 298.39 247.62 295.80 239.28 C 293.68 232.49 292.14 225.55 290.76 218.59 C 278.88 248.96 264.94 278.51 248.94 306.93 C 244.95 314.51 240.26 322.10 233.24 327.24 C 229.74 329.93 224.81 331.16 220.68 329.20 C 216.29 327.28 213.99 322.64 212.79 318.26 C 210.35 308.55 211.18 298.41 212.53 288.61 C 207.99 300.08 202.96 311.37 197.16 322.26 C 195.07 326.02 192.83 329.80 189.62 332.72 C 182.44 339.43 169.25 338.76 163.52 330.47 C 154.76 318.61 151.07 303.60 150.50 289.05 C 150.92 275.75 152.94 262.41 157.33 249.82 C 147.56 255.12 137.94 260.69 128.42 266.43 C 135.19 280.19 136.08 296.15 134.09 311.14 C 131.66 329.45 123.24 347.00 109.88 359.84 C 95.74 374.01 76.42 383.12 56.34 384.00 L 51.42 384.00 C 43.14 383.12 33.59 383.00 27.31 376.70 C 18.10 367.50 14.96 353.52 17.13 340.93 C 18.97 328.21 25.51 316.56 34.56 307.56 C 53.39 288.70 76.93 275.56 100.39 263.39 C 91.54 255.80 81.76 249.42 72.21 242.76 C 56.00 231.58 39.80 220.14 25.85 206.15 C 13.51 193.59 2.70 178.33 0.00 160.55 L 0.00 153.50 C 1.05 142.75 4.89 132.46 9.93 122.97 C 18.40 107.18 30.25 93.47 43.26 81.26 C 61.25 64.59 81.77 50.85 103.27 39.14 C 123.55 28.16 144.76 18.93 166.54 11.35 M 212.41 214.61 C 205.73 216.74 200.38 221.84 196.31 227.39 C 186.01 241.97 178.63 258.95 177.17 276.88 C 176.47 285.23 176.37 293.93 179.22 301.92 C 180.04 303.81 181.46 306.74 184.01 305.85 C 186.71 304.38 188.23 301.53 189.77 298.99 C 195.16 289.11 198.92 278.45 203.02 268.00 C 208.09 255.30 212.70 242.41 216.26 229.20 C 217.31 224.89 218.72 220.47 218.11 215.99 C 217.02 213.91 214.36 213.98 212.41 214.61 M 363.44 279.37 C 362.22 282.77 360.29 286.53 361.77 290.16 C 366.17 288.40 370.56 286.33 374.06 283.06 C 382.04 275.97 384.58 263.93 381.28 253.95 C 373.23 260.65 367.10 269.57 363.44 279.37 M 65.26 307.34 C 56.73 315.46 50.18 326.13 48.40 337.88 C 47.88 342.99 47.98 349.25 52.40 352.74 C 57.48 356.22 64.17 355.18 69.79 353.78 C 86.52 349.02 100.08 336.16 108.16 321.04 C 115.89 306.62 117.04 289.25 112.60 273.62 C 95.92 283.48 79.34 293.92 65.26 307.34 M 303.36 289.46 C 298.44 295.46 292.80 300.83 288.00 306.93 C 292.33 307.40 295.69 304.12 299.01 301.87 C 306.99 295.96 314.05 287.05 313.59 276.61 C 310.10 280.83 306.88 285.26 303.36 289.46 Z" />
</g>
</svg>
